X: 1
T:Autumn in the beech forest
C:anon.
O:Hungary
Z:Transcribed by Frank Nordberg - http://www.musicaviva.com
M:2/4
L:1/8
Q:192
K:Gdor
ggde|f2e2|d2c2|fedg|c2BA|G2A2|
cBAd|c2B2|A2A2|fede|d2BA|G2G2|]
